X:850
T:Reel 850
M:4/4
K:Gmaj
L:1/8
dc|BAGg  (3efg dB|cedB A2Ac|BGGB defa|bagf g2:|ga|bgaf gfed|eaag fgdc'|bgaf gfed| (3efg af g2:|
